src/assets/sponsors2/ethereumFoundation.svg

<svg fill="none" height="220" viewBox="0 0 378 220" width="378" xmlns="http://www.w3.org/2000/svg"><path d="m104.92 123.997v-45.997l-20.0735 33.935z" fill="#ffe644"/><path d="m104.92 78 20.073 33.935-20.073 11.972z" fill="#ec7463"/><path d="m84.8465 114.546 20.0735 11.972v15.482" fill="#009ecb"/><path d="m124.993 114.546-20.073 11.972v15.482" fill="#4d68ae"/><path d="m104.92 99.9635-20.0735 11.9715 20.0735 11.972z" fill="#57a759"/><path d="m104.92 99.9635 20.073 11.9715-20.073 11.972z" fill="#8e5298"/><g fill="#faf7f5"><path d="m138.582 101.592c0-1.17.27-2.3406.81-3.4208.54-.9901 1.26-1.8002 2.251-2.3403.99-.5401 2.16-.8102 3.24-.8102s2.25.2701 3.241.8102c.9.5401 1.71 1.3502 2.16 2.3403.54 1.0802.81 2.2508.81 3.4208v.99h-9.181c0 .72.36 1.44.9 1.89.63.54 1.35.72 2.16.72.63 0 1.17-.09 1.71-.45.631-.36 1.261-.81 1.711-1.44l2.07 2.16c-.72.811-1.53 1.441-2.43 1.891-.991.45-1.981.63-3.061.63-1.17 0-2.34-.27-3.33-.81-.991-.54-1.711-1.351-2.251-2.251-.63-.9-.81-2.07-.81-3.33zm9.092-1.35c-.09-.6305-.36-1.2606-.901-1.7107-1.17-.9001-2.7-.9001-3.87 0-.54.4501-.81 1.0802-.99 1.7107z"/><path d="m161.446 98.4413v4.9507c0 .36.09.63.27.9.27.18.63.27.99.27h2.79v3.241h-3.15c-1.17.09-2.251-.27-3.151-.99-.81-.721-1.17-1.711-1.08-2.791v-5.6707h-3.06v-2.9705h3.06v-3.1505h3.331v3.1505h4.86v2.9705z"/><path d="m170.807 90.7901h3.331v5.7609h.09c1.53-1.6202 4.05-1.9803 5.941-.8101.72.4501 1.26 1.0802 1.62 1.8003.36.9001.63 1.8003.54 2.7008v7.471h-3.331v-7.021c0-.7204-.18-1.3505-.63-1.8906-.45-.4501-1.08-.7201-1.71-.7201-.72 0-1.35.18-1.89.7201-.45.5401-.72 1.1702-.72 1.8906v7.021h-3.331z"/><path d="m186.02 101.592c0-1.17.27-2.3406.81-3.4208.54-.9901 1.26-1.8002 2.25-2.3403s2.16-.8102 3.241-.8102c1.08 0 2.25.2701 3.24.8102.9.5401 1.71 1.3502 2.16 2.3403.541 1.0802.811 2.2508.811 3.4208v.99h-9.182c0 .72.36 1.44.9 1.89.63.54 1.35.72 2.161.72.63 0 1.17-.09 1.71-.45.63-.36 1.26-.81 1.71-1.44l2.07 2.16c-.72.811-1.53 1.441-2.43 1.891-.99.45-1.98.72-3.06.63-1.171 0-2.341-.27-3.331-.81s-1.71-1.351-2.25-2.251-.81-2.07-.81-3.33zm9.091-1.35c-.09-.6305-.36-1.2606-.9-1.7107-1.17-.9001-2.701-.9001-3.871 0-.54.4501-.81 1.0802-.99 1.7107z"/><path d="m203.302 95.4709h3.151v1.1702h.09c.9-.9902 2.25-1.5303 3.6-1.5303.99 0 1.981.2701 2.791.9002s1.35 1.5302 1.62 2.6104l-3.15.9901c-.271-.9901-1.171-1.6202-2.251-1.5302-.72-.09-1.44.18-1.89.7201s-.72 1.2606-.63 1.9806v6.931h-3.331z"/><path d="m217.704 101.592c0-1.17.271-2.3406.811-3.4208.54-.9901 1.26-1.8002 2.25-2.3403s2.16-.8102 3.24-.8102c1.081 0 2.251.2701 3.241.8102.9.5401 1.71 1.3502 2.16 2.3403.54 1.0802.81 2.2508.81 3.4208v.99h-9.181c0 .72.36 1.44.9 1.89.63.54 1.35.72 2.16.72.631 0 1.171-.09 1.711-.45.63-.36 1.26-.81 1.71-1.44l2.07 2.16c-.72.811-1.53 1.441-2.43 1.891-.99.45-1.98.72-3.061.63-1.17 0-2.34-.27-3.33-.81s-1.71-1.351-2.25-2.251c-.63-.9-.901-2.07-.811-3.33zm9.092-1.35c-.09-.6305-.36-1.2606-.9-1.7107-1.17-.9001-2.701-.9001-3.871 0-.54.4501-.81 1.0802-.99 1.7107z"/><path d="m234.177 103.572v-8.1012h3.331v7.3812c-.18 1.08.54 2.07 1.62 2.25h.54c.63 0 1.17-.18 1.62-.63s.63-1.08.63-1.62v-7.3812h3.331v12.3322h-3.151v-1.08h-.09c-.36.45-.9.81-1.44 1.08-1.8.72-3.781.45-5.221-.81-.81-.991-1.26-2.161-1.17-3.421z"/><path d="m248.939 95.4708h2.971v1.0802h.09c.27-.36.63-.7201.99-.9901.45-.2701.9-.3601 1.35-.3601.99 0 1.89.5401 2.341 1.3502h.09c.54-.9001 1.53-1.4402 2.52-1.3502.81 0 1.62.3601 2.16.9902.54.7201.9 1.6202.81 2.5204v9.0916h-3.06v-8.5516c0-.27-.09-.6301-.27-.8101s-.54-.27-.81-.27-.54.09-.81.36c-.18.2701-.27.5401-.27.8102v8.4615h-2.881v-8.5516c0-.27-.09-.54-.27-.8101-.18-.18-.45-.27-.72-.27s-.63.09-.81.27c-.18.2701-.36.5401-.27.8101v8.4616h-3.061z"/><path d="m142.273 124.365h-3.241v-2.97h3.241v-1.8c-.09-.99.36-1.891 1.08-2.611.81-.63 1.89-.99 2.97-.9h3.601v2.971h-3.151c-.27 0-.54.09-.72.27s-.27.45-.27.72v1.44h4.861v2.97h-4.951v8.012h-3.42z"/><path d="m154.425 126.166c0-1.171.27-2.341.81-3.421.54-.99 1.26-1.8 2.25-2.34 2.07-1.08 4.501-1.08 6.571 0 .9.54 1.71 1.35 2.25 2.34 1.081 2.16 1.081 4.681 0 6.751-.54.99-1.26 1.8-2.25 2.341-2.07 1.08-4.501 1.08-6.571 0-.99-.541-1.71-1.351-2.25-2.341-.63-.99-.9-2.16-.81-3.33zm9.181 0c.09-.9-.18-1.801-.81-2.521-.54-.63-1.35-.99-2.16-.9-.811 0-1.621.27-2.161.9-.54.72-.81 1.621-.81 2.521-.09.9.18 1.8.81 2.52 1.17 1.17 3.061 1.26 4.321.09l.09-.09c.54-.72.81-1.62.72-2.52z"/><path d="m170.897 128.146v-8.101h3.331v7.381c-.18 1.08.63 2.07 1.71 2.25h.54c.63 0 1.17-.18 1.62-.63s.63-1.08.63-1.62v-7.381h3.331v12.332h-3.151v-1.081h-.09c-.36.451-.9.811-1.44 1.081-2.07 1.17-4.771.36-5.941-1.711-.45-.81-.63-1.71-.54-2.52z"/><path d="m186.65 120.045h3.33v1.17h.09c.45-.45.99-.81 1.62-1.17.631-.27 1.261-.36 1.981-.36.81 0 1.53.18 2.25.54.72.45 1.35.99 1.71 1.71.45.9.72 1.89.63 2.88v7.472h-3.33v-7.022c0-.72-.18-1.35-.63-1.89s-1.08-.72-1.71-.72c-.721 0-1.351.18-1.891.72-.45.54-.72 1.17-.72 1.89v7.022h-3.33z"/><path d="m201.592 126.166c0-1.17.27-2.341.72-3.331s1.17-1.8 1.98-2.34c.901-.54 1.891-.81 2.971-.81 1.17-.09 2.34.36 3.24 1.08h.09v-5.401h3.331v17.013h-3.061v-1.08h-.09c-.9.99-2.25 1.44-3.6 1.44-.99 0-2.07-.27-2.881-.81-.9-.54-1.53-1.351-1.98-2.251-.45-1.17-.72-2.34-.72-3.51zm9.001.81v-1.62c0-.45-.09-.901-.36-1.261-.27-.45-.63-.72-1.08-.99s-.99-.36-1.44-.36c-.81 0-1.53.36-2.07.9-.991 1.531-.991 3.511 0 5.041.45.63 1.26.99 1.98.99.81 0 1.53-.27 2.07-.81.63-.45.9-1.17.9-1.89z"/><path d="m218.425 129.046c-.09-.99.36-1.98 1.17-2.7 1.17-.81 2.52-1.261 3.96-1.441.721-.09 1.351-.27 1.981-.54.27-.18.54-.45.54-.81s-.18-.72-.54-.9c-.45-.27-.9-.36-1.44-.36-.631 0-1.261.18-1.711.63s-.81.99-.9 1.62l-3.06-.72c.18-.81.54-1.62 1.08-2.25s1.26-1.17 2.07-1.53 1.8-.54 2.701-.54c1.35-.09 2.79.36 3.78 1.35.99.9 1.44 2.25 1.44 3.51v7.832h-2.97v-1.261h-.09c-.36.54-.9.991-1.53 1.261-.72.27-1.441.45-2.161.45s-1.53-.18-2.16-.45-1.17-.721-1.53-1.261c-.45-.63-.63-1.26-.63-1.89zm7.741-1.26v-1.44h-.09c-.18.27-.45.45-.72.54-.54.18-.99.36-1.531.45-.63.09-1.26.27-1.8.63-.27.18-.54.54-.45.9 0 .36.18.63.45.81.36.18.81.27 1.26.27s.991-.09 1.441-.27.81-.45 1.08-.81c.18-.36.36-.72.36-1.08z"/><path d="m240.568 123.015v4.951c0 .36.09.63.27.9.27.18.63.27.99.27h2.791v3.241h-3.151c-1.17.09-2.25-.27-3.15-.991-.81-.72-1.17-1.71-1.08-2.79v-5.671h-3.061v-2.97h3.061v-3.151h3.33v3.151h4.861v2.97h-4.861z"/><path d="m261.631 129.316v3.061h-12.152v-3.061h4.411v-6.211h-4.14v-3.06h7.471v9.271zm-7.741-14.492h3.421v3.24h-3.421z"/><path d="m265.142 126.166c0-1.171.27-2.341.81-3.421.54-.99 1.26-1.8 2.25-2.34 2.071-1.08 4.501-1.08 6.571 0 .901.54 1.711 1.35 2.251 2.34 1.08 2.16 1.08 4.681 0 6.751-.54.99-1.26 1.8-2.251 2.341-2.07 1.08-4.5 1.08-6.571 0-.9-.541-1.71-1.351-2.25-2.341s-.81-2.16-.81-3.33zm9.271 0c.09-.9-.18-1.801-.81-2.521-.54-.63-1.35-.99-2.16-.9-.81 0-1.62.27-2.16.9-.541.72-.811 1.621-.811 2.521-.09.9.18 1.8.811 2.52 1.17 1.17 3.06 1.26 4.32.09l.09-.09c.45-.72.72-1.62.72-2.52z"/><path d="m281.524 120.045h3.331v1.17h.09c.45-.45.99-.81 1.62-1.17.63-.27 1.26-.36 1.981-.36.81 0 1.53.18 2.25.54.72.45 1.35.99 1.71 1.71.45.9.72 1.89.63 2.88v7.472h-3.33v-7.022c0-.72-.18-1.35-.63-1.89s-1.08-.72-1.711-.72c-.72 0-1.35.18-1.89.72-.45.54-.72 1.17-.72 1.89v7.022h-3.331z"/></g></svg>

<svg width="378" height="220" viewBox="0 0 378 220" fill="none" xmlns="http://www.w3.org/2000/svg">
<path d="M104.92 123.997V78L84.8465 111.935L104.92 123.997Z" fill="#FFE644"/>
<path d="M104.92 78L124.993 111.935L104.92 123.907V78V78Z" fill="#EC7463"/>
<path d="M84.8465 114.546L104.92 126.518V142" fill="#009ECB"/>
<path d="M124.993 114.546L104.92 126.518V142" fill="#4D68AE"/>
<path d="M104.92 99.9635L84.8465 111.935L104.92 123.907V99.9635V99.9635Z" fill="#57A759"/>
<path d="M104.92 99.9635L124.993 111.935L104.92 123.907V99.9635V99.9635Z" fill="#8E5298"/>
<path d="M138.582 101.592C138.582 100.422 138.852 99.2514 139.392 98.1712C139.932 97.1811 140.652 96.371 141.643 95.8309C142.633 95.2908 143.803 95.0207 144.883 95.0207C145.963 95.0207 147.133 95.2908 148.124 95.8309C149.024 96.371 149.834 97.1811 150.284 98.1712C150.824 99.2514 151.094 100.422 151.094 101.592V102.582H141.913C141.913 103.302 142.273 104.022 142.813 104.472C143.443 105.012 144.163 105.192 144.973 105.192C145.603 105.192 146.143 105.102 146.683 104.742C147.314 104.382 147.944 103.932 148.394 103.302L150.464 105.462C149.744 106.273 148.934 106.903 148.034 107.353C147.043 107.803 146.053 107.983 144.973 107.983C143.803 107.983 142.633 107.713 141.643 107.173C140.652 106.633 139.932 105.822 139.392 104.922C138.762 104.022 138.582 102.852 138.582 101.592ZM147.674 100.242C147.584 99.6115 147.314 98.9814 146.773 98.5313C145.603 97.6312 144.073 97.6312 142.903 98.5313C142.363 98.9814 142.093 99.6115 141.913 100.242H147.674Z" fill="#FAF7F5"/>
<path d="M161.446 98.4413V103.392C161.446 103.752 161.536 104.022 161.716 104.292C161.986 104.472 162.346 104.562 162.706 104.562H165.496V107.803H162.346C161.176 107.893 160.095 107.533 159.195 106.813C158.385 106.092 158.025 105.102 158.115 104.022V98.3513H155.055V95.3808H158.115V92.2303H161.446V95.3808H166.306V98.3513L161.446 98.4413Z" fill="#FAF7F5"/>
<path d="M170.807 90.7901H174.138V96.551H174.228C175.758 94.9308 178.278 94.5707 180.169 95.7409C180.889 96.191 181.429 96.8211 181.789 97.5412C182.149 98.4413 182.419 99.3415 182.329 100.242V107.713H178.998V100.692C178.998 99.9716 178.818 99.3415 178.368 98.8014C177.918 98.3513 177.288 98.0813 176.658 98.0813C175.938 98.0813 175.308 98.2613 174.768 98.8014C174.318 99.3415 174.048 99.9716 174.048 100.692V107.713H170.717L170.807 90.7901Z" fill="#FAF7F5"/>
<path d="M186.02 101.592C186.02 100.422 186.29 99.2514 186.83 98.1712C187.37 97.1811 188.09 96.371 189.08 95.8309C190.07 95.2908 191.24 95.0207 192.321 95.0207C193.401 95.0207 194.571 95.2908 195.561 95.8309C196.461 96.371 197.271 97.1811 197.721 98.1712C198.262 99.2514 198.532 100.422 198.532 101.592V102.582H189.35C189.35 103.302 189.71 104.022 190.25 104.472C190.88 105.012 191.6 105.192 192.411 105.192C193.041 105.192 193.581 105.102 194.121 104.742C194.751 104.382 195.381 103.932 195.831 103.302L197.901 105.462C197.181 106.273 196.371 106.903 195.471 107.353C194.481 107.803 193.491 108.073 192.411 107.983C191.24 107.983 190.07 107.713 189.08 107.173C188.09 106.633 187.37 105.822 186.83 104.922C186.29 104.022 186.02 102.852 186.02 101.592ZM195.111 100.242C195.021 99.6115 194.751 98.9814 194.211 98.5313C193.041 97.6312 191.51 97.6312 190.34 98.5313C189.8 98.9814 189.53 99.6115 189.35 100.242H195.111Z" fill="#FAF7F5"/>
<path d="M203.302 95.4709H206.453V96.6411H206.543C207.443 95.6509 208.793 95.1108 210.143 95.1108C211.133 95.1108 212.124 95.3809 212.934 96.011C213.744 96.6411 214.284 97.5412 214.554 98.6214L211.404 99.6115C211.133 98.6214 210.233 97.9913 209.153 98.0813C208.433 97.9913 207.713 98.2613 207.263 98.8014C206.813 99.3415 206.543 100.062 206.633 100.782V107.713H203.302V95.4709Z" fill="#FAF7F5"/>
<path d="M217.704 101.592C217.704 100.422 217.975 99.2514 218.515 98.1712C219.055 97.1811 219.775 96.371 220.765 95.8309C221.755 95.2908 222.925 95.0207 224.005 95.0207C225.086 95.0207 226.256 95.2908 227.246 95.8309C228.146 96.371 228.956 97.1811 229.406 98.1712C229.946 99.2514 230.216 100.422 230.216 101.592V102.582H221.035C221.035 103.302 221.395 104.022 221.935 104.472C222.565 105.012 223.285 105.192 224.095 105.192C224.726 105.192 225.266 105.102 225.806 104.742C226.436 104.382 227.066 103.932 227.516 103.302L229.586 105.462C228.866 106.273 228.056 106.903 227.156 107.353C226.166 107.803 225.176 108.073 224.095 107.983C222.925 107.983 221.755 107.713 220.765 107.173C219.775 106.633 219.055 105.822 218.515 104.922C217.885 104.022 217.614 102.852 217.704 101.592ZM226.796 100.242C226.706 99.6115 226.436 98.9814 225.896 98.5313C224.726 97.6312 223.195 97.6312 222.025 98.5313C221.485 98.9814 221.215 99.6115 221.035 100.242H226.796Z" fill="#FAF7F5"/>
<path d="M234.177 103.572V95.4708H237.508V102.852C237.328 103.932 238.048 104.922 239.128 105.102C239.308 105.102 239.488 105.102 239.668 105.102C240.298 105.102 240.838 104.922 241.288 104.472C241.738 104.022 241.918 103.392 241.918 102.852V95.4708H245.249V107.803H242.098V106.723H242.008C241.648 107.173 241.108 107.533 240.568 107.803C238.768 108.523 236.787 108.253 235.347 106.993C234.537 106.002 234.087 104.832 234.177 103.572Z" fill="#FAF7F5"/>
<path d="M248.939 95.4708H251.91V96.551H252C252.27 96.191 252.63 95.8309 252.99 95.5609C253.44 95.2908 253.89 95.2008 254.34 95.2008C255.33 95.2008 256.23 95.7409 256.681 96.551H256.771C257.311 95.6509 258.301 95.1108 259.291 95.2008C260.101 95.2008 260.911 95.5609 261.451 96.191C261.991 96.9111 262.351 97.8112 262.261 98.7114V107.803H259.201V99.2514C259.201 98.9814 259.111 98.6213 258.931 98.4413C258.751 98.2613 258.391 98.1713 258.121 98.1713C257.851 98.1713 257.581 98.2613 257.311 98.5313C257.131 98.8014 257.041 99.0714 257.041 99.3415V107.803H254.16V99.2514C254.16 98.9814 254.07 98.7114 253.89 98.4413C253.71 98.2613 253.44 98.1713 253.17 98.1713C252.9 98.1713 252.54 98.2613 252.36 98.4413C252.18 98.7114 252 98.9814 252.09 99.2514V107.713H249.029L248.939 95.4708Z" fill="#FAF7F5"/>
<path d="M142.273 124.365H139.032V121.395H142.273V119.595C142.183 118.605 142.633 117.704 143.353 116.984C144.163 116.354 145.243 115.994 146.323 116.084H149.924V119.055H146.773C146.503 119.055 146.233 119.145 146.053 119.325C145.873 119.505 145.783 119.775 145.783 120.045V121.485H150.644V124.455H145.693V132.467H142.273V124.365Z" fill="#FAF7F5"/>
<path d="M154.425 126.166C154.425 124.995 154.695 123.825 155.235 122.745C155.775 121.755 156.495 120.945 157.485 120.405C159.555 119.325 161.986 119.325 164.056 120.405C164.956 120.945 165.766 121.755 166.306 122.745C167.387 124.905 167.387 127.426 166.306 129.496C165.766 130.486 165.046 131.296 164.056 131.837C161.986 132.917 159.555 132.917 157.485 131.837C156.495 131.296 155.775 130.486 155.235 129.496C154.605 128.506 154.335 127.336 154.425 126.166ZM163.606 126.166C163.696 125.266 163.426 124.365 162.796 123.645C162.256 123.015 161.446 122.655 160.636 122.745C159.825 122.745 159.015 123.015 158.475 123.645C157.935 124.365 157.665 125.266 157.665 126.166C157.575 127.066 157.845 127.966 158.475 128.686C159.645 129.856 161.536 129.946 162.796 128.776L162.886 128.686C163.426 127.966 163.696 127.066 163.606 126.166Z" fill="#FAF7F5"/>
<path d="M170.897 128.146V120.045H174.228V127.426C174.048 128.506 174.858 129.496 175.938 129.676C176.118 129.676 176.298 129.676 176.478 129.676C177.108 129.676 177.648 129.496 178.098 129.046C178.548 128.596 178.728 127.966 178.728 127.426V120.045H182.059V132.377H178.908V131.296H178.818C178.458 131.747 177.918 132.107 177.378 132.377C175.308 133.547 172.607 132.737 171.437 130.666C170.987 129.856 170.807 128.956 170.897 128.146Z" fill="#FAF7F5"/>
<path d="M186.65 120.045H189.98V121.215H190.07C190.52 120.765 191.06 120.405 191.69 120.045C192.321 119.775 192.951 119.685 193.671 119.685C194.481 119.685 195.201 119.865 195.921 120.225C196.641 120.675 197.271 121.215 197.631 121.935C198.081 122.835 198.351 123.825 198.261 124.815V132.287H194.931V125.265C194.931 124.545 194.751 123.915 194.301 123.375C193.851 122.835 193.221 122.655 192.591 122.655C191.87 122.655 191.24 122.835 190.7 123.375C190.25 123.915 189.98 124.545 189.98 125.265V132.287H186.65V120.045Z" fill="#FAF7F5"/>
<path d="M201.592 126.166C201.592 124.996 201.862 123.825 202.312 122.835C202.762 121.845 203.482 121.035 204.292 120.495C205.193 119.955 206.183 119.685 207.263 119.685C208.433 119.595 209.603 120.045 210.503 120.765H210.593V115.364H213.924V132.377H210.863V131.297H210.773C209.873 132.287 208.523 132.737 207.173 132.737C206.183 132.737 205.103 132.467 204.292 131.927C203.392 131.387 202.762 130.576 202.312 129.676C201.862 128.506 201.592 127.336 201.592 126.166ZM210.593 126.976V125.356C210.593 124.906 210.503 124.455 210.233 124.095C209.963 123.645 209.603 123.375 209.153 123.105C208.703 122.835 208.163 122.745 207.713 122.745C206.903 122.745 206.183 123.105 205.643 123.645C204.652 125.176 204.652 127.156 205.643 128.686C206.093 129.316 206.903 129.676 207.623 129.676C208.433 129.676 209.153 129.406 209.693 128.866C210.323 128.416 210.593 127.696 210.593 126.976Z" fill="#FAF7F5"/>
<path d="M218.425 129.046C218.335 128.056 218.785 127.066 219.595 126.346C220.765 125.536 222.115 125.085 223.555 124.905C224.276 124.815 224.906 124.635 225.536 124.365C225.806 124.185 226.076 123.915 226.076 123.555C226.076 123.195 225.896 122.835 225.536 122.655C225.086 122.385 224.636 122.295 224.096 122.295C223.465 122.295 222.835 122.475 222.385 122.925C221.935 123.375 221.575 123.915 221.485 124.545L218.425 123.825C218.605 123.015 218.965 122.205 219.505 121.575C220.045 120.945 220.765 120.405 221.575 120.045C222.385 119.685 223.375 119.505 224.276 119.505C225.626 119.415 227.066 119.865 228.056 120.855C229.046 121.755 229.496 123.105 229.496 124.365V132.197H226.526V130.936H226.436C226.076 131.476 225.536 131.927 224.906 132.197C224.186 132.467 223.465 132.647 222.745 132.647C222.025 132.647 221.215 132.467 220.585 132.197C219.955 131.927 219.415 131.476 219.055 130.936C218.605 130.306 218.425 129.676 218.425 129.046ZM226.166 127.786V126.346H226.076C225.896 126.616 225.626 126.796 225.356 126.886C224.816 127.066 224.366 127.246 223.825 127.336C223.195 127.426 222.565 127.606 222.025 127.966C221.755 128.146 221.485 128.506 221.575 128.866C221.575 129.226 221.755 129.496 222.025 129.676C222.385 129.856 222.835 129.946 223.285 129.946C223.735 129.946 224.276 129.856 224.726 129.676C225.176 129.496 225.536 129.226 225.806 128.866C225.986 128.506 226.166 128.146 226.166 127.786Z" fill="#FAF7F5"/>
<path d="M240.568 123.015V127.966C240.568 128.326 240.658 128.596 240.838 128.866C241.108 129.046 241.468 129.136 241.828 129.136H244.619V132.377H241.468C240.298 132.467 239.218 132.107 238.318 131.386C237.508 130.666 237.148 129.676 237.238 128.596V122.925H234.177V119.955H237.238V116.804H240.568V119.955H245.429V122.925H240.568V123.015Z" fill="#FAF7F5"/>
<path d="M261.631 129.316V132.377H249.479V129.316H253.89V123.105H249.75V120.045H257.221V129.316H261.631V129.316ZM253.89 114.824H257.311V118.064H253.89V114.824Z" fill="#FAF7F5"/>
<path d="M265.142 126.166C265.142 124.995 265.412 123.825 265.952 122.745C266.492 121.755 267.212 120.945 268.202 120.405C270.273 119.325 272.703 119.325 274.773 120.405C275.674 120.945 276.484 121.755 277.024 122.745C278.104 124.905 278.104 127.426 277.024 129.496C276.484 130.486 275.764 131.296 274.773 131.837C272.703 132.917 270.273 132.917 268.202 131.837C267.302 131.296 266.492 130.486 265.952 129.496C265.412 128.506 265.142 127.336 265.142 126.166ZM274.413 126.166C274.503 125.266 274.233 124.365 273.603 123.645C273.063 123.015 272.253 122.655 271.443 122.745C270.633 122.745 269.823 123.015 269.283 123.645C268.742 124.365 268.472 125.266 268.472 126.166C268.382 127.066 268.652 127.966 269.283 128.686C270.453 129.856 272.343 129.946 273.603 128.776L273.693 128.686C274.143 127.966 274.413 127.066 274.413 126.166Z" fill="#FAF7F5"/>
<path d="M281.524 120.045H284.855V121.215H284.945C285.395 120.765 285.935 120.405 286.565 120.045C287.195 119.775 287.825 119.685 288.546 119.685C289.356 119.685 290.076 119.865 290.796 120.225C291.516 120.675 292.146 121.215 292.506 121.935C292.956 122.835 293.226 123.825 293.136 124.815V132.287H289.806V125.265C289.806 124.545 289.626 123.915 289.176 123.375C288.726 122.835 288.096 122.655 287.465 122.655C286.745 122.655 286.115 122.835 285.575 123.375C285.125 123.915 284.855 124.545 284.855 125.265V132.287H281.524V120.045Z" fill="#FAF7F5"/>
</svg>
